;FLAVOR:UltiGCode
;TIME:4198
;MATERIAL:10958
;MATERIAL2:0
;NOZZLE_DIAMETER:0.400000
;NOZZLE_DIAMETER2:0.400000

;Layer count: 187
;LAYER:0
M107
G10
G0 F9000 X99.631 Y98.606 Z0.200
;TYPE:WALL-INNER
G11
G1 F1800 X100.918 Y99.368 E0.11965
G1 X101.944 Y99.476 E0.20219
G1 X102.237 Y98.858 E0.25690
G1 X102.675 Y100.069 E0.35992
G1 X104.136 Y98.951 E0.50710
G1 X104.229 Y102.796 E0.81479
G1 X98.620 Y108.415 E1.44994
G1 X96.859 Y107.581 E1.60582
G1 X98.702 Y101.033 E2.15001
G1 X98.780 Y100.983 E2.15743
G1 X99.631 Y98.606 E2.35941
G0 F9000 X101.047 Y98.979
G1 F1800 X101.704 Y99.048 E2.41226
G1 X102.286 Y97.821 E2.52090
G1 X102.865 Y99.420 E2.65695
G1 X104.517 Y98.156 E2.82335
G1 X104.633 Y102.956 E3.20747
G1 X98.703 Y108.897 E3.87899
G1 X96.382 Y107.798 E4.08443
G1 X98.358 Y100.779 E4.66778
G1 X98.449 Y100.721 E4.67641
G1 X99.419 Y98.015 E4.90638
G1 X101.047 Y98.979 E5.05774
G0 F9000 X101.176 Y98.590
;TYPE:WALL-OUTER
G1 F1800 X101.464 Y98.621 E5.08092
G1 X102.336 Y96.783 E5.24367
G1 X103.056 Y98.771 E5.41281
G1 X104.899 Y97.361 E5.59846
G1 X105.035 Y103.019 E6.05123
G1 X105.058 Y103.097 E6.05773
G1 X98.878 Y109.288 E6.75754
G1 X98.789 Y109.380 E6.76778
G1 X95.905 Y108.015 E7.02304
G1 X98.000 Y100.574 E7.64146
G1 X98.014 Y100.525 E7.64554
G1 X98.118 Y100.458 E7.65544
G1 X99.205 Y97.423 E7.91334
G1 X101.176 Y98.590 E8.09659
G0 F9000 X100.585 Y99.171
;TYPE:SKIN
G1 F1800 X104.219 Y102.805 E8.50773
G0 F9000 X103.936 Y103.088
G1 F1800 X99.582 Y98.734 E9.00032
G0 F9000 X99.434 Y99.151
G1 F1800 X103.654 Y103.371 E9.47776
G0 F9000 X103.371 Y103.654
G1 F1800 X99.284 Y99.567 E9.94015
G0 F9000 X99.135 Y99.984
G1 F1800 X103.089 Y103.937 E10.38744
G0 F9000 X102.806 Y104.220
G1 F1800 X98.987 Y100.401 E10.81951
G0 F9000 X98.837 Y100.817
G1 F1800 X102.524 Y104.504 E11.23665
G0 F9000 X102.241 Y104.786
G1 F1800 X98.654 Y101.199 E11.64247
G0 F9000 X98.530 Y101.641
G1 F1800 X101.958 Y105.069 E12.03031
G0 F9000 X101.676 Y105.353
G1 F1800 X98.405 Y102.082 E12.40038
G0 F9000 X98.281 Y102.524
G1 F1800 X101.393 Y105.636 E12.75246
G0 F9000 X101.110 Y105.918
G1 F1800 X98.157 Y102.966 E13.08650
G0 F9000 X98.033 Y103.407
G1 F1800 X100.828 Y106.202 E13.40271
G0 F9000 X100.545 Y106.485
G1 F1800 X97.908 Y103.848 E13.70106
G0 F9000 X97.784 Y104.289
G1 F1800 X100.262 Y106.768 E13.98147
G0 F9000 X104.214 Y102.234
G1 F1800 X101.398 Y99.418 E14.30006
G0 F9000 X101.968 Y99.422
G1 F1800 X104.201 Y101.655 E14.55270
G0 F9000 X104.187 Y101.075
G1 F1800 X102.961 Y99.849 E14.69140
G0 F9000 X103.282 Y99.605
G1 F1800 X104.173 Y100.496 E14.79221
G0 F9000 X104.158 Y99.916
G1 F1800 X103.764 Y99.238 E14.85510
G1 X104.144 Y99.336 E14.88649
G0 F9000 X102.388 Y99.277
G1 F1800 X102.292 Y99.180 E14.89741
G0 F9000 X97.660 Y104.731
G1 F1800 X99.980 Y107.051 E15.15989
G0 F9000 X99.697 Y107.334
G1 F1800 X97.536 Y105.172 E15.40443
G0 F9000 X97.411 Y105.614
G1 F1800 X99.415 Y107.618 E15.63116
G0 F9000 X99.132 Y107.900
G1 F1800 X97.287 Y106.056 E15.83984
G0 F9000 X97.163 Y106.497
G1 F1800 X98.849 Y108.183 E16.03059
G0 F9000 X98.420 Y108.319
G1 F1800 X97.039 Y106.938 E16.18683
G0 F9000 X96.915 Y107.380
G1 F1800 X97.343 Y107.809 E16.23531
G10
G0 F9000 X118.770 Y102.793
;TYPE:WALL-INNER
G11
G1 F1800 X118.864 Y98.952 E16.54269
G1 X120.325 Y100.070 E16.68986
G1 X120.762 Y98.860 E16.79278
G1 X121.061 Y99.490 E16.84857
G1 X122.089 Y99.362 E16.93144
G1 X123.368 Y98.605 E17.05034
G1 X124.218 Y100.981 E17.25222
G1 X124.296 Y101.032 E17.25967
G1 X126.143 Y107.584 E17.80426
G1 X124.378 Y108.418 E17.96043
G1 X118.770 Y102.793 E18.59587
G0 F9000 X118.366 Y102.954
G1 F1800 X118.483 Y98.157 E18.97974
G1 X120.135 Y99.420 E19.14610
G1 X120.713 Y97.821 E19.28212
G1 X121.299 Y99.057 E19.39155
G1 X121.957 Y98.975 E19.44460
G1 X123.581 Y98.014 E19.59556
G1 X124.549 Y100.719 E19.82540
G1 X124.640 Y100.778 E19.83408
G1 X126.620 Y107.801 E20.41782
G1 X124.295 Y108.900 E20.62355
G1 X118.366 Y102.954 E21.29530
G0 F9000 X117.964 Y103.019
;TYPE:WALL-OUTER
G1 F1800 X118.102 Y97.362 E21.74800
G1 X119.944 Y98.771 E21.93353
G1 X120.663 Y96.783 E22.10265
G1 X121.536 Y98.624 E22.26565
G1 X121.825 Y98.588 E22.28895
G1 X123.795 Y97.423 E22.47204
G1 X124.880 Y100.457 E22.72982
G1 X124.985 Y100.525 E22.73982
G1 X127.096 Y108.018 E23.36260
G1 X124.210 Y109.382 E23.61797
G1 X117.942 Y103.096 E24.32813
G1 X117.964 Y103.019 E24.33454
G0 F9000 X118.772 Y102.649
;TYPE:SKIN
G1 F1800 X124.487 Y108.365 E24.98117
G0 F9000 X124.871 Y108.183
G1 F1800 X118.785 Y102.097 E25.66972
G0 F9000 X118.798 Y101.545
G1 F1800 X125.255 Y108.002 E26.40025
G0 F9000 X125.639 Y107.820
G1 F1800 X118.812 Y100.993 E27.17264
G0 F9000 X118.826 Y100.441
G1 F1800 X126.023 Y107.638 E27.98688
G0 F9000 X125.988 Y107.038
G1 F1800 X118.839 Y99.889 E28.79570
G0 F9000 X118.853 Y99.337
G1 F1800 X125.766 Y106.250 E29.57782
G0 F9000 X125.544 Y105.462
G1 F1800 X119.592 Y99.511 E30.25115
G0 F9000 X120.428 Y99.780
G1 F1800 X125.322 Y104.675 E30.80490
G0 F9000 X125.100 Y103.887
G1 F1800 X120.578 Y99.365 E31.31651
G0 F9000 X121.246 Y99.467
G1 F1800 X124.879 Y103.100 E31.72754
G0 F9000 X124.657 Y102.312
G1 F1800 X121.748 Y99.404 E32.05660
G0 F9000 X122.203 Y99.293
G1 F1800 X124.435 Y101.524 E32.30906
G0 F9000 X124.083 Y100.607
G1 F1800 X122.559 Y99.083 E32.48148
G0 F9000 X122.914 Y98.872
G1 F1800 X123.769 Y99.728 E32.57827
G0 F9000 X123.455 Y98.848
G1 F1800 X123.269 Y98.662 E32.59931
G10
G0 F9000 X114.298 Y104.331
;TYPE:WALL-INNER
G11
G1 F1800 X118.153 Y114.848 E33.49541
G1 X118.131 Y115.142 E33.51900
G1 X122.958 Y120.657 E34.10533
G1 X123.548 Y119.438 E34.21367
G1 X123.627 Y119.375 E34.22175
G1 X126.054 Y115.611 E34.58004
G1 X126.416 Y116.339 E34.64508
G1 X127.194 Y116.801 E34.71747
G1 X128.747 Y115.964 E34.85861
G1 X129.120 Y117.559 E34.98965
G1 X129.961 Y118.026 E35.06661
G1 X130.916 Y117.677 E35.14795
G1 X129.195 Y123.246 E35.61426
G1 X120.688 Y129.040 E36.43767
G1 X111.500 Y126.545 E37.19933
G1 X102.311 Y129.042 E37.96111
G1 X93.807 Y123.249 E38.78428
G1 X92.085 Y117.678 E39.25077
G1 X93.038 Y118.027 E39.33196
G1 X93.879 Y117.560 E39.40891
G1 X94.253 Y115.964 E39.54005
G1 X95.782 Y116.787 E39.67897
G1 X96.572 Y116.360 E39.75081
G1 X96.945 Y115.610 E39.81782
G1 X99.372 Y119.373 E40.17604
G1 X99.460 Y119.445 E40.18514
G1 X100.064 Y120.632 E40.29168
G1 X104.860 Y115.152 E40.87427
G1 X104.844 Y114.858 E40.89782
G1 X108.698 Y104.331 E41.79465
G1 X111.413 Y104.340 E42.01185
G1 X114.298 Y104.331 E42.24265
G0 F9000 X111.528 Y117.796
G1 F1800 X110.794 Y117.955 E42.30273
G1 X110.220 Y118.411 E42.36138
G1 X109.901 Y119.065 E42.41959
G1 X109.898 Y119.433 E42.44903
G1 X109.901 Y119.810 E42.47919
G1 X110.227 Y120.467 E42.53787
G1 X110.800 Y120.917 E42.59615
G1 X111.521 Y121.070 E42.65512
G1 X112.312 Y120.856 E42.72067
G1 X112.915 Y120.259 E42.78856
G1 X113.137 Y119.437 E42.85667
G1 X112.921 Y118.618 E42.92443
G1 X112.333 Y118.022 E42.99141
G1 X111.528 Y117.796 E43.05830
G0 F9000 X111.516 Y118.208
G1 F1800 X110.969 Y118.326 E43.10307
G1 X110.539 Y118.668 E43.14702
G1 X110.300 Y119.158 E43.19064
G1 X110.298 Y119.433 E43.21264
G1 X110.300 Y119.715 E43.23520
G1 X110.545 Y120.208 E43.27924
G1 X110.974 Y120.545 E43.32288
G1 X111.510 Y120.659 E43.36672
G1 X112.106 Y120.498 E43.41611
G1 X112.557 Y120.050 E43.46697
G1 X112.723 Y119.436 E43.51785
G1 X112.561 Y118.823 E43.56857
G1 X112.122 Y118.378 E43.61858
G1 X111.516 Y118.208 E43.66893
G0 F9000 X118.543 Y115.005
G1 F1800 X122.861 Y119.939 E44.19346
G1 X123.227 Y119.183 E44.26066
G1 X123.326 Y119.104 E44.27079
G1 X126.100 Y114.802 E44.68030
G1 X126.722 Y116.055 E44.79221
G1 X127.203 Y116.341 E44.83697
G1 X129.018 Y115.364 E45.00187
G1 X129.469 Y117.295 E45.16051
G1 X129.995 Y117.588 E45.20868
G1 X131.536 Y117.025 E45.33993
G1 X129.557 Y123.428 E45.87608
G1 X129.550 Y123.487 E45.88083
G1 X120.762 Y129.475 E46.73156
G1 X111.500 Y126.959 E47.49938
G1 X102.239 Y129.476 E48.26713
G1 X93.451 Y123.490 E49.11777
G1 X93.445 Y123.431 E49.12252
G1 X91.465 Y117.025 E49.65892
G1 X93.004 Y117.589 E49.79005
G1 X93.530 Y117.297 E49.83817
G1 X93.983 Y115.364 E49.99700
G1 X95.782 Y116.333 E50.16047
G1 X96.271 Y116.068 E50.20497
G1 X96.900 Y114.802 E50.31806
G1 X99.673 Y119.102 E50.72739
G1 X99.777 Y119.186 E50.73808
G1 X100.152 Y119.924 E50.80431
G1 X104.451 Y115.011 E51.32657
G1 X104.440 Y114.798 E51.34364
G1 X108.419 Y103.930 E52.26952
G1 X111.484 Y103.940 E52.51472
G1 X111.497 Y103.934 E52.51586
G1 X111.513 Y103.942 E52.51729
G1 X114.577 Y103.930 E52.76242
G1 X118.559 Y114.792 E53.68793
G1 X118.543 Y115.005 E53.70502
G0 F9000 X118.954 Y114.868
;TYPE:WALL-OUTER
G1 F1800 X122.764 Y119.221 E54.16781
G1 X122.906 Y118.928 E54.19385
G1 X123.025 Y118.833 E54.20603
G1 X126.145 Y113.994 E54.66665
G1 X127.028 Y115.772 E54.82546
G1 X127.213 Y115.882 E54.84268
G1 X129.288 Y114.764 E55.03124
G1 X129.818 Y117.032 E55.21757
G1 X130.030 Y117.149 E55.23694
G1 X132.156 Y116.373 E55.41800
G1 X129.950 Y123.510 E56.01561
G1 X129.927 Y123.715 E56.03211
G1 X120.931 Y129.843 E56.90290
G1 X120.875 Y129.882 E56.90836
G1 X120.822 Y129.905 E56.91298
G1 X111.500 Y127.374 E57.68574
G1 X102.180 Y129.906 E58.45837
G1 X102.125 Y129.882 E58.46317
G1 X93.072 Y123.716 E59.33944
G1 X93.051 Y123.512 E59.35584
G1 X90.844 Y116.373 E59.95363
G1 X92.969 Y117.150 E60.13464
G1 X93.181 Y117.033 E60.15401
G1 X93.713 Y114.764 E60.34045
G1 X95.781 Y115.878 E60.52837
G1 X95.969 Y115.777 E60.54544
G1 X96.855 Y113.994 E60.70472
G1 X99.974 Y118.831 E61.16516
G1 X100.096 Y118.930 E61.17773
G1 X100.241 Y119.215 E61.20331
G1 X104.043 Y114.870 E61.66519
G1 X104.036 Y114.738 E61.67577
G1 X108.140 Y103.529 E62.63070
G1 X111.388 Y103.540 E62.89054
G1 X111.499 Y103.483 E62.90053
G1 X111.610 Y103.541 E62.91055
G1 X114.855 Y103.529 E63.17015
G1 X118.964 Y114.736 E64.12507
G1 X118.954 Y114.868 E64.13566
G0 F9000 X118.655 Y114.846
G0 X112.416 Y118.818
G0 X112.202 Y119.028
G1 F1800 X111.912 Y118.735 E64.16864
G1 X111.503 Y118.620 E64.20263
G1 X111.145 Y118.697 E64.23192
G1 X110.859 Y118.925 E64.26118
G1 X110.699 Y119.252 E64.29031
G1 X110.698 Y119.433 E64.30479
G1 X110.699 Y119.620 E64.31975
G1 X110.862 Y119.949 E64.34912
G1 X111.148 Y120.173 E64.37818
G1 X111.499 Y120.248 E64.40690
G1 X111.899 Y120.139 E64.44007
G1 X112.199 Y119.842 E64.47384
G1 X112.309 Y119.435 E64.50757
G1 X112.202 Y119.028 E64.54123
G0 F9000 X113.009 Y118.948
;TYPE:SKIN
G1 F1800 X122.121 Y128.061 E65.57219
G0 F9000 X121.785 Y128.290
G1 F1800 X113.092 Y119.597 E66.55569
G0 F9000 X111.984 Y117.924
G1 F1800 X105.935 Y111.874 E67.24012
G0 F9000 X106.086 Y111.460
G1 F1800 X122.458 Y127.832 E69.09240
G0 F9000 X122.794 Y127.603
G1 F1800 X106.238 Y111.046 E70.96555
G0 F9000 X106.389 Y110.632
G1 F1800 X123.131 Y127.373 E72.85964
G0 F9000 X123.467 Y127.144
G1 F1800 X106.541 Y110.218 E74.77459
G0 F9000 X106.693 Y109.804
G1 F1800 X123.804 Y126.915 E76.71048
G0 F9000 X124.141 Y126.686
G1 F1800 X106.844 Y109.390 E78.66736
G0 F9000 X106.996 Y108.976
G1 F1800 X124.477 Y126.457 E80.64511
G0 F9000 X124.814 Y126.228
G1 F1800 X107.147 Y108.562 E82.64384
G0 F9000 X107.299 Y108.147
G1 F1800 X125.150 Y125.998 E84.66345
G0 F9000 X125.486 Y125.769
G1 F1800 X107.451 Y107.734 E86.70388
G0 F9000 X107.602 Y107.319
G1 F1800 X125.823 Y125.540 E88.76535
G0 F9000 X126.159 Y125.311
G1 F1800 X107.754 Y106.906 E90.84764
G0 F9000 X107.905 Y106.491
G1 F1800 X126.496 Y125.082 E92.95097
G0 F9000 X126.833 Y124.853
G1 F1800 X108.057 Y106.077 E95.07523
G0 F9000 X108.209 Y105.663
G1 F1800 X121.235 Y118.689 E96.54896
G0 F9000 X122.840 Y119.778
G0 X123.406 Y119.729
G1 F1800 X127.842 Y124.165 E97.05083
G0 F9000 X127.506 Y124.394
G1 F1800 X123.221 Y120.110 E97.53557
G0 F9000 X123.036 Y120.490
G1 F1800 X127.169 Y124.624 E98.00322
G0 F9000 X128.179 Y123.936
G1 F1800 X123.622 Y119.379 E98.51879
G0 F9000 X123.844 Y119.035
G1 F1800 X128.515 Y123.707 E99.04731
G0 F9000 X128.851 Y123.477
G1 F1800 X124.066 Y118.692 E99.58867
G0 F9000 X124.288 Y118.348
G1 F1800 X129.188 Y123.248 E100.14304
G0 F9000 X129.326 Y122.820
G1 F1800 X124.509 Y118.004 E100.68796
G0 F9000 X124.731 Y117.660
G1 F1800 X129.459 Y122.388 E101.22288
G0 F9000 X129.592 Y121.956
G1 F1800 X124.952 Y117.316 E101.74783
G0 F9000 X125.174 Y116.972
G1 F1800 X129.726 Y121.524 E102.26283
G0 F9000 X129.860 Y121.092
G1 F1800 X125.396 Y116.628 E102.76788
G0 F9000 X125.618 Y116.284
G1 F1800 X129.993 Y120.659 E103.26285
G0 F9000 X130.127 Y120.227
G1 F1800 X125.840 Y115.940 E103.74787
G0 F9000 X127.241 Y116.775
G1 F1800 X130.261 Y119.795 E104.08954
G0 F9000 X130.394 Y119.363
G1 F1800 X127.608 Y116.577 E104.40474
G0 F9000 X127.976 Y116.379
G1 F1800 X129.108 Y117.511 E104.53282
G0 F9000 X129.201 Y117.605
G1 F1800 X130.528 Y118.931 E104.68289
G0 F9000 X130.662 Y118.499
G1 F1800 X130.334 Y117.889 E104.74329
G1 X130.795 Y118.067 E104.78282
G0 F9000 X128.935 Y116.773
G1 F1800 X128.343 Y116.181 E104.84980
G0 F9000 X127.204 Y116.312
G0 X126.729 Y116.050
G0 X122.840 Y119.778
G0 X118.139 Y115.027
G1 F1800 X108.360 Y105.249 E105.95611
G0 F9000 X108.511 Y104.834
G1 F1800 X117.937 Y114.260 E107.02254
G0 F9000 X117.610 Y113.367
G1 F1800 X108.663 Y104.421 E108.03472
G0 F9000 X109.141 Y104.332
G1 F1800 X117.282 Y112.474 E108.95582
G0 F9000 X116.955 Y111.581
G1 F1800 X109.709 Y104.335 E109.77562
G0 F9000 X110.276 Y104.336
G1 F1800 X116.628 Y110.688 E110.49426
G0 F9000 X116.300 Y109.795
G1 F1800 X110.843 Y104.338 E111.11165
G0 F9000 X111.411 Y104.339
G1 F1800 X115.973 Y108.902 E111.62784
G0 F9000 X115.645 Y108.009
G1 F1800 X111.975 Y104.338 E112.04311
G0 F9000 X112.539 Y104.337
G1 F1800 X115.318 Y107.116 E112.35752
G0 F9000 X114.991 Y106.222
G1 F1800 X113.103 Y104.335 E112.57106
G0 F9000 X113.667 Y104.333
G1 F1800 X114.663 Y105.329 E112.68375
G0 F9000 X114.336 Y104.436
G1 F1800 X114.231 Y104.332 E112.69557
G0 F9000 X105.783 Y112.289
G1 F1800 X111.331 Y117.837 E113.32326
G0 F9000 X110.866 Y117.937
G1 F1800 X105.631 Y112.702 E113.91553
G0 F9000 X105.480 Y113.117
G1 F1800 X110.528 Y118.165 E114.48664
G0 F9000 X110.216 Y118.419
G1 F1800 X105.329 Y113.531 E115.03960
G0 F9000 X105.177 Y113.945
G1 F1800 X110.031 Y118.799 E115.58877
G0 F9000 X109.900 Y119.234
G1 F1800 X105.025 Y114.359 E116.14031
G0 F9000 X104.873 Y114.773
G1 F1800 X109.900 Y119.800 E116.70905
G0 F9000 X104.778 Y115.243
G1 F1800 X117.786 Y128.251 E118.18074
G0 F9000 X118.562 Y128.462
G1 F1800 X111.074 Y120.973 E119.02797
G0 F9000 X111.690 Y121.024
G1 F1800 X119.339 Y128.672 E119.89330
G0 F9000 X120.115 Y128.883
G1 F1800 X112.135 Y120.903 E120.79613
G0 F9000 X112.483 Y120.685
G1 F1800 X120.775 Y128.978 E121.73432
G0 F9000 X121.112 Y128.749
G1 F1800 X112.767 Y120.404 E122.67845
G0 F9000 X112.972 Y120.043
G1 F1800 X121.448 Y128.519 E123.63740
G0 F9000 X117.009 Y128.040
G1 F1800 X104.513 Y115.544 E125.05116
G0 F9000 X104.250 Y115.846
G1 F1800 X116.232 Y127.829 E126.40682
G0 F9000 X115.456 Y127.618
G1 F1800 X103.985 Y116.147 E127.70462
G0 F9000 X103.721 Y116.449
G1 F1800 X114.679 Y127.407 E128.94438
G0 F9000 X113.903 Y127.197
G1 F1800 X103.458 Y116.751 E130.12615
G0 F9000 X103.193 Y117.053
G1 F1800 X113.126 Y126.985 E131.24988
G0 F9000 X112.350 Y126.775
G1 F1800 X102.929 Y117.354 E132.31575
G0 F9000 X102.665 Y117.656
G1 F1800 X111.573 Y126.564 E133.32357
G0 F9000 X111.097 Y126.653
G1 F1800 X102.401 Y117.958 E134.30736
G0 F9000 X102.138 Y118.260
G1 F1800 X110.652 Y126.774 E135.27061
G0 F9000 X110.207 Y126.895
G1 F1800 X101.873 Y118.561 E136.21349
G0 F9000 X101.609 Y118.863
G1 F1800 X109.762 Y127.016 E137.13590
G0 F9000 X109.318 Y127.137
G1 F1800 X101.345 Y119.164 E138.03794
G0 F9000 X101.081 Y119.466
G1 F1800 X108.873 Y127.258 E138.91950
G0 F9000 X108.428 Y127.378
G1 F1800 X100.817 Y119.768 E139.78053
G0 F9000 X100.553 Y120.069
G1 F1800 X107.982 Y127.499 E140.62108
G0 F9000 X107.538 Y127.620
G1 F1800 X100.289 Y120.371 E141.44122
G0 F9000 X96.013 Y116.661
G1 F1800 X107.093 Y127.740 E142.69472
G0 F9000 X106.648 Y127.861
G1 F1800 X95.328 Y116.541 E143.97543
G0 F9000 X96.380 Y116.462
G1 F1800 X99.559 Y119.641 E144.33509
G0 F9000 X98.492 Y118.008
G1 F1800 X96.661 Y116.177 E144.54225
G0 F9000 X96.867 Y115.818
G1 F1800 X97.466 Y116.416 E144.60996
G0 F9000 X94.239 Y116.018
